WhiteSur/apps/scalable/distributor-logo-korora.svg

<svg width="64" height="64" version="1.1" viewBox="0 0 16.933 16.933" xmlns="http://www.w3.org/2000/svg">
 <g transform="matrix(1.0385 0 0 1.0385 -.41232 -.32567)" stroke-width=".92729">
  <path d="m8.467 1.588a6.879 6.879 0 1 1 0 13.757 6.879 6.879 0 0 1 0-13.757z" fill="#4380b4"/>
 </g>
 <path d="M9.596 4.233a3.104 3.104 0 0 0-3.01 2.355 3.104 3.104 0 0 0-2.353 3.008V12.7h3.105a3.104 3.104 0 0 0 3.01-2.354A3.104 3.104 0 0 0 12.7 7.338V4.233zm0 .444h2.66v2.66a2.661 2.661 0 0 1-1.827 2.524 3.104 3.104 0 0 0 .013-.265A3.104 3.104 0 0 0 7.338 6.49a3.104 3.104 0 0 0-.268.013 2.661 2.661 0 0 1 2.526-1.827zM7.338 6.935a2.661 2.661 0 0 1 2.66 2.66 2.661 2.661 0 0 1-.03.374 2.661 2.661 0 0 1-.372.03 2.661 2.661 0 0 1-2.661-2.661 2.661 2.661 0 0 1 .03-.374 2.661 2.661 0 0 1 .373-.03zm-.834.137a3.104 3.104 0 0 0-.013.266 3.104 3.104 0 0 0 3.105 3.104 3.104 3.104 0 0 0 .267-.013 2.661 2.661 0 0 1-2.525 1.827h-2.66v-2.66a2.661 2.661 0 0 1 1.826-2.524z" fill="#fff"/>
</svg>

<?xml version="1.0" encoding="UTF-8" standalone="no"?>
<svg
   xmlns:dc="http://purl.org/dc/elements/1.1/"
   xmlns:cc="http://creativecommons.org/ns#"
   xmlns:rdf="http://www.w3.org/1999/02/22-rdf-syntax-ns#"
   xmlns:svg="http://www.w3.org/2000/svg"
   xmlns="http://www.w3.org/2000/svg"
   xmlns:xlink="http://www.w3.org/1999/xlink"
   xmlns:sodipodi="http://sodipodi.sourceforge.net/DTD/sodipodi-0.dtd"
   xmlns:inkscape="http://www.inkscape.org/namespaces/inkscape"
   width="64"
   height="64"
   version="1.1"
   viewBox="0 0 16.933 16.933"
   id="svg17"
   sodipodi:docname="distributor-logo-korora.svg"
   inkscape:version="1.0 (4035a4fb49, 2020-05-01)">
  <metadata
     id="metadata21">
    <rdf:RDF>
      <cc:Work
         rdf:about="">
        <dc:format>image/svg+xml</dc:format>
        <dc:type
           rdf:resource="http://purl.org/dc/dcmitype/StillImage" />
        <dc:title></dc:title>
      </cc:Work>
    </rdf:RDF>
  </metadata>
  <sodipodi:namedview
     inkscape:document-rotation="0"
     pagecolor="#ffffff"
     bordercolor="#666666"
     borderopacity="1"
     objecttolerance="10"
     gridtolerance="10"
     guidetolerance="10"
     inkscape:pageopacity="0"
     inkscape:pageshadow="2"
     inkscape:window-width="1920"
     inkscape:window-height="964"
     id="namedview19"
     showgrid="false"
     inkscape:zoom="4.391796"
     inkscape:cx="1.422851"
     inkscape:cy="46.664962"
     inkscape:window-x="0"
     inkscape:window-y="36"
     inkscape:window-maximized="1"
     inkscape:current-layer="svg17" />
  <defs
     id="defs7">
    <linearGradient
       id="b"
       x1="45.628"
       x2="45.628"
       y1="57.955"
       y2="12.461"
       gradientTransform="matrix(0.26458,0,0,0.26458,0,280.07)"
       gradientUnits="userSpaceOnUse">
      <stop
         offset="0"
         id="stop2" />
      <stop
         stop-opacity="0"
         offset="1"
         id="stop4" />
    </linearGradient>
    <linearGradient
       id="a">
      <stop
         offset="0"
         id="stop2-3" />
      <stop
         offset="1"
         stop-opacity="0"
         id="stop4-6" />
    </linearGradient>
    <linearGradient
       gradientTransform="matrix(0.26458,0,0,0.26458,0,280.067)"
       xlink:href="#a"
       id="b-7"
       x1="46.168"
       y1="57"
       x2="46.168"
       y2="27.346"
       gradientUnits="userSpaceOnUse" />
    <linearGradient
       gradientUnits="userSpaceOnUse"
       gradientTransform="matrix(0.53033,0,0,0.53033,12.458961,68.818742)"
       y2="-100.78"
       y1="-137.82"
       x2="-6.1472"
       x1="-6.1472"
       id="a-3">
      <stop
         id="stop849"
         offset="0"
         stop-color="#32b4ff" />
      <stop
         id="stop851"
         offset="1"
         stop-color="#3287ff" />
    </linearGradient>
    <linearGradient
       xlink:href="#a"
       id="b-5"
       x1="46.168"
       y1="57"
       x2="46.168"
       y2="27.346"
       gradientUnits="userSpaceOnUse"
       gradientTransform="matrix(0.37979758,0,0,0.37979758,-3.1351735,-6.1641916)" />
    <linearGradient
       gradientUnits="userSpaceOnUse"
       gradientTransform="matrix(0.56696,0,0,0.56696,-218.64,-293.03)"
       y2="517.8"
       y1="545.8"
       x2="399.57"
       x1="399.57"
       id="d">
      <stop
         id="stop851-3"
         offset="0"
         stop-color="#3889e9" />
      <stop
         id="stop853"
         offset="1"
         stop-color="#5ea5fb" />
    </linearGradient>
    <linearGradient
       gradientUnits="userSpaceOnUse"
       gradientTransform="matrix(0.53033,0,0,0.53033,11.509,71.86385)"
       y2="-100.78"
       y1="-137.82"
       x2="-6.1472"
       x1="-6.1472"
       id="a-3-5">
      <stop
         id="stop856"
         offset="0"
         stop-color="#14dc78" />
      <stop
         id="stop858"
         offset="1"
         stop-color="#14a03c" />
    </linearGradient>
    <linearGradient
       inkscape:collect="always"
       xlink:href="#d"
       id="linearGradient956"
       gradientUnits="userSpaceOnUse"
       gradientTransform="matrix(0.56696,0,0,0.56696,-218.64,-293.16215)"
       x1="399.57"
       y1="545.8"
       x2="399.57"
       y2="517.8" />
    <linearGradient
       inkscape:collect="always"
       xlink:href="#d"
       id="linearGradient911"
       gradientUnits="userSpaceOnUse"
       gradientTransform="matrix(0.56696,0,0,0.56696,-218.64,-293.16215)"
       x1="399.57"
       y1="545.8"
       x2="399.57"
       y2="517.8" />
    <linearGradient
       gradientUnits="userSpaceOnUse"
       gradientTransform="matrix(0.53033,0,0,0.53033,9.7971589,65.996156)"
       y2="-100.78"
       y1="-137.82"
       x2="-6.1472"
       x1="-6.1472"
       id="a-3-9">
      <stop
         id="stop848"
         offset="0"
         stop-color="#32b4ff" />
      <stop
         id="stop850"
         offset="1"
         stop-color="#3287ff" />
    </linearGradient>
    <style
       id="style4"
       type="text/css" />
    <filter
       color-interpolation-filters="sRGB"
       height="1.048"
       width="1.048"
       y="-.024"
       x="-.024"
       id="filter2761">
      <feGaussianBlur
         id="feGaussianBlur6"
         stdDeviation="0.14552168" />
    </filter>
    <linearGradient
       gradientUnits="userSpaceOnUse"
       gradientTransform="matrix(3.7796,0,0,3.7796,110.07575,0.53066)"
       y2="1.1082"
       y1="15.429"
       x2="15.644"
       x1="1.2573"
       id="linearGradient4673">
      <stop
         id="stop9"
         offset="0"
         stop-color="#32dcff" />
      <stop
         id="stop11"
         offset="1"
         stop-color="#3296ff" />
    </linearGradient>
    <linearGradient
       gradientUnits="userSpaceOnUse"
       gradientTransform="matrix(1.0000066,0,0,1.0000066,19.187825,0)"
       y2="1.0583"
       y1="6.879"
       x2="7.9373"
       x1="7.9373"
       id="linearGradient865">
      <stop
         id="stop2-36"
         offset="0"
         stop-color="#fff" />
      <stop
         id="stop4-7"
         offset="1"
         stop-color="#fcc" />
    </linearGradient>
    <linearGradient
       gradientTransform="translate(19.187825)"
       gradientUnits="userSpaceOnUse"
       y2="3.9327"
       y1="14.579"
       x2="12.314"
       x1="2.6278"
       id="linearGradient855">
      <stop
         id="stop7"
         offset="0"
         stop-color="#d462aa" />
      <stop
         id="stop9-3"
         offset=".15178"
         stop-color="#56c7d9" />
      <stop
         id="stop11-6"
         offset=".33294"
         stop-color="#2da8b8" />
      <stop
         id="stop13"
         offset=".53353"
         stop-color="#72cb6b" />
      <stop
         id="stop15"
         offset=".71019"
         stop-color="#c4dc2b" />
      <stop
         id="stop17"
         offset=".8623"
         stop-color="#f9da3e" />
      <stop
         id="stop19"
         offset="1"
         stop-color="#f69429" />
    </linearGradient>
    <linearGradient
       gradientUnits="userSpaceOnUse"
       gradientTransform="matrix(0.26458,0,0,0.26458,19.187825,0)"
       y2="6.9915"
       y1="19"
       x2="57.008"
       x1="45"
       id="linearGradient910">
      <stop
         id="stop22"
         offset="0"
         stop-color="#fff" />
      <stop
         id="stop24"
         offset="1"
         stop-color="#ffe3cc" />
    </linearGradient>
    <filter
       inkscape:collect="always"
       style="color-interpolation-filters:sRGB"
       id="filter1057"
       x="-0.027000001"
       width="1.054"
       y="-0.027000001"
       height="1.054">
      <feGaussianBlur
         inkscape:collect="always"
         stdDeviation="0.61875"
         id="feGaussianBlur1059" />
    </filter>
    <linearGradient
       inkscape:collect="always"
       xlink:href="#linearGradient1051"
       id="linearGradient1053"
       x1="-127"
       y1="60"
       x2="-72"
       y2="5"
       gradientUnits="userSpaceOnUse"
       gradientTransform="matrix(0.26457812,0,0,0.26457812,34.792024,-0.13493447)" />
    <linearGradient
       inkscape:collect="always"
       id="linearGradient1051">
      <stop
         style="stop-color:#32d7ff;stop-opacity:1"
         offset="0"
         id="stop1047" />
      <stop
         style="stop-color:#329bff;stop-opacity:1"
         offset="1"
         id="stop1049" />
    </linearGradient>
    <style
       type="text/css"
       id="style872" />
    <filter
       id="filter2761-7"
       x="-.024"
       y="-.024"
       width="1.048"
       height="1.048"
       color-interpolation-filters="sRGB">
      <feGaussianBlur
         stdDeviation="0.14552168"
         id="feGaussianBlur874" />
    </filter>
    <style
       id="style4-5"
       type="text/css" />
    <style
       id="style6"
       type="text/css" />
    <style
       id="style8"
       type="text/css" />
    <filter
       color-interpolation-filters="sRGB"
       height="1.048"
       width="1.048"
       y="-.024"
       x="-.024"
       id="filter2761-36">
      <feGaussianBlur
         id="feGaussianBlur10"
         stdDeviation="0.14552168" />
    </filter>
    <linearGradient
       gradientUnits="userSpaceOnUse"
       gradientTransform="matrix(3.7796,0,0,3.7796,111.78704,0.53107)"
       y2="1.17"
       y1="15.576"
       x2="15.65"
       x1="1.3315"
       id="linearGradient1024-6">
      <stop
         id="stop13-7"
         offset="0"
         stop-color="#00dc96" />
      <stop
         id="stop15-5"
         offset="1"
         stop-color="#14d29b" />
    </linearGradient>
    <linearGradient
       gradientUnits="userSpaceOnUse"
       gradientTransform="matrix(0.27476,0,0,0.27476,-24.952118,-0.32515)"
       y2="12.461"
       y1="57.955"
       x2="45.628"
       x1="45.628"
       id="b-1">
      <stop
         id="stop2-3-2"
         offset="0" />
      <stop
         id="stop4-5"
         offset="1"
         stop-opacity="0" />
    </linearGradient>
    <style
       type="text/css"
       id="style872-0" />
    <style
       type="text/css"
       id="style874" />
    <style
       type="text/css"
       id="style876" />
    <filter
       id="filter2761-3"
       x="-.024"
       y="-.024"
       width="1.048"
       height="1.048"
       color-interpolation-filters="sRGB">
      <feGaussianBlur
         stdDeviation="0.14552168"
         id="feGaussianBlur878" />
    </filter>
    <linearGradient
       id="linearGradient1024-6-6"
       x1="1.3315"
       x2="15.65"
       y1="15.576"
       y2="1.17"
       gradientTransform="matrix(3.7796,0,0,3.7796,-0.0020773,0.53047)"
       gradientUnits="userSpaceOnUse">
      <stop
         stop-color="#00dc96"
         offset="0"
         id="stop881" />
      <stop
         stop-color="#14d29b"
         offset="1"
         id="stop883" />
    </linearGradient>
  </defs>
  <rect
     ry="15"
     y="4.4999995"
     x="4.4999995"
     height="55"
     width="55"
     id="rect1055"
     style="opacity:0.3;fill:#141414;fill-opacity:1;stroke-width:2.74436;stroke-linecap:round;filter:url(#filter1057)"
     transform="scale(0.26457812)" />
  <rect
     style="fill:url(#linearGradient1053);fill-opacity:1;stroke-width:0.726098;stroke-linecap:round"
     id="rect1045"
     width="14.551796"
     height="14.551796"
     x="1.1906021"
     y="1.1906021"
     ry="3.9686716" />
  <circle
     id="circle870"
     stroke-width="0.26458"
     fill="#5e4aa6"
     r="0"
     cy="-318.95218"
     cx="-308.78006" />
  <circle
     id="circle872"
     stroke-width="0.26458"
     fill-rule="evenodd"
     fill="#5e4aa6"
     r="0"
     cy="15.865837"
     cx="-17.864065" />
  <circle
     cx="8.4665003"
     cy="8.3343506"
     r="7.9376001"
     fill-opacity="0"
     stroke-width="0.41578"
     id="circle873" />
  <circle
     style="fill:url(#linearGradient911)"
     cx="8.4665003"
     cy="8.3343506"
     r="0"
     fill="url(#d)"
     stroke-width="0.41578"
     id="circle875" />
  <circle
     id="circle910"
     stroke-width="0.41578"
     fill="url(#d)"
     r="0"
     cy="8.3343506"
     cx="8.4665003"
     style="fill:url(#linearGradient956)" />
  <path
     id="path936"
     fill="#ffffff"
     d="M 9.596,4.233 A 3.104,3.104 0 0 0 6.586,6.588 3.104,3.104 0 0 0 4.233,9.596 V 12.7 H 7.338 A 3.104,3.104 0 0 0 10.348,10.346 3.104,3.104 0 0 0 12.7,7.338 V 4.233 Z m 0,0.444 h 2.66 v 2.66 A 2.661,2.661 0 0 1 10.429,9.861 3.104,3.104 0 0 0 10.442,9.596 3.104,3.104 0 0 0 7.338,6.49 3.104,3.104 0 0 0 7.07,6.503 2.661,2.661 0 0 1 9.596,4.676 Z M 7.338,6.935 A 2.661,2.661 0 0 1 9.998,9.595 2.661,2.661 0 0 1 9.968,9.969 2.661,2.661 0 0 1 9.596,9.999 2.661,2.661 0 0 1 6.935,7.338 2.661,2.661 0 0 1 6.965,6.964 2.661,2.661 0 0 1 7.338,6.934 Z M 6.504,7.072 A 3.104,3.104 0 0 0 6.491,7.338 3.104,3.104 0 0 0 9.596,10.442 3.104,3.104 0 0 0 9.863,10.429 2.661,2.661 0 0 1 7.338,12.256 H 4.678 V 9.596 A 2.661,2.661 0 0 1 6.504,7.072 Z" />
  <circle
     id="circle869"
     stroke-width="0.26458"
     fill="#5e4aa6"
     r="0"
     cy="-322.15509"
     cx="-329.51428" />
  <circle
     id="circle871"
     stroke-width="0.26458"
     fill-rule="evenodd"
     fill="#5e4aa6"
     r="0"
     cy="12.662923"
     cx="-38.598293" />
  <circle
     id="circle16"
     fill="#5e4aa6"
     r="0"
     cy="-344.6301"
     cx="-339.93466"
     style="stroke-width:0.264578" />
  <g
     id="g26"
     stroke-width="0.26458"
     fill="#5e4aa6"
     transform="translate(-9.57448,-16.257957)">
    <circle
       id="circle18"
       r="0"
       cy="-338.76999"
       cx="-299.01999" />
    <circle
       id="circle20"
       fill-rule="evenodd"
       r="0"
       cy="-3.9487"
       cx="-8.1062002" />
    <circle
       id="circle22"
       r="0"
       cy="-357.69"
       cx="-278.25" />
    <circle
       id="circle24"
       fill-rule="evenodd"
       r="0"
       cy="-22.858999"
       cx="12.663" />
  </g>
</svg>
